X:1
T:Father Kelly's
R:Reel
D:Trian (D\'aithi\'i Sproule, Liz Carrol, Billy McComiskey): Trian (1992)
M:2/2
L:1/8
K:G
|: B2GB AGFG | DGGF GGAB | c2AB cBAG | FAAG FDEG |
   B2GB AGFG | DGGF GABc | d2Bd gdBd | cAFA G4  :|
|: d2Bd gdBd | d2Bd gdBd | e2ce agfe | defg agfe |
   d2Bd gdBd | d2Bd gdBd | c2Ac BAGB | AGFA G4  :|

